X:50
T: Fly By Night
C: arr. Brian Conway
Z: B.Black
R: hornpipe
Q: 1/4=165
M: 4/4
L: 1/8
K: Eb
(3Bcd|e ~B3 GEB,A,|G,B, (3EGB eB=AB|ABGB FBEB|\
DECE B,2 (3Bcd |
e ~B3 GEB,A,|G,B, (3EGB eB=AB|cAEC A,Edc |1\
(3BcB (3AGF E2 :|
|2 (3BcB (3AGF E2 ||GB|c2 GF E ~C3|G,CEG cBdc|
B2 FE D ~B,3|=A,B,DF ABcd |e ~B3 GEB,A,|\
G,B, (3EGB eB=AB|
cAEC A,Edc |1 (3BcB (3AGF E2 :|2 (3BcB (3AGF E2 ||
%%%%%%%
P: (transposed to G)
K: G
(3def|g ~d3 BGDC|B,D (3GBd gd^cd|cdBd AdGd|\
FGEG D2 (3def |
g ~d3 BGDC|B,D (3GBd gd^cd|ecGE CGfe |1\
(3ded (3cBA G2 :|
|2 (3ded (3cBA G2 ||Bd|e2 BA G ~E3|B,EGB edfe|
d2 AG F ~D3|^CDFA cdef |g ~d3 BGDC|\
B,D (3GBd gd^cd|
ecGE CGfe |1 (3ded (3cBA G2 :|2 (3ded (3cBA G2 ||
